X:1
T:Empress Anne Polka
T:Empress Anne Polka
T:Johann Strauss
C:Johann Strauss
L:1/8
M:2/4
K:G
V:1 treble 
V:1
 dg Bg |{fg} fA/B/ c/B/A | da cf |{ga} gB/c/ d/c/B | dg Bg |{fg} fA/B/ c/B/A | fd' df | gg g z || %8
 B/c/d/e/ d/B/c/A/ | bg g/f/g/ | ae fd | gg g/f/g | B/c/d/e/ d/B/c/A/ | bg g/f/g | ae fd | %15
 gb g z!D.C.! || f/g/ f2 a | ag gA | e/f/ e2 g | gf fA |{fg} f2 a | ag gA | e/f/e g^c | dd d z || %24
 (3A/G/F/ | Ge Ge | d/^c/d/e/ dg | Gd Gd | e/=f/d/e/ c(3A/G/F/ | Ge Ge | d/^c/d/e/ dg | %31
 a=f f/e/f/d/ | ce c z!D.C.! || %33

